X: 25869
T: Mathirsta Brautigan
R: hornpipe
M: 4/4
K: Dmajor
|:D2dc dAFA|D2dc dAFD|EFGA BAcA|dcde fdAF|
D2dc dAFA|D2dc dAFD|EFGA Bcde|1 fdec d2AF:|2 fdec d2z2||
|:efa2 g2ge|fgfe dcBc|dcBA FDFA|G2Ez E3G,|
A,2A,G F2FD|EDEF DFAd|cdef gece|1 d2f2 d3z:|2 d2f2 d2AF||

